X:15
T:No.115 Cloch na Ceithre Mhile
M:4/4
L:1/8
C:reel
K:G
A,2EA, A,2 EA,|A,2GE DB,A,B,|
G,2 (3B,A,G, DG,B,A,|G,B,B,B, G,B,DB,|
A,2EA, A,2AB|(3cBA BG AGAB|
(3cBA BG AGEA|GEDB, G,A,A,G,:|
A,ABA eABA|A,EEE D2B,G,|
(3B,A,G, DG, EG,D2|(3ded (3BdB (3GAG DA,|
A,EAA AB (3cde|AGED E2AB|
(3cBA BG AGEA|GEDB, G,A,A,G,:||
